/* XPM */
static const char *kuncode_app_icon[] = {
"128 128 250 2",
"00 c None",
"01 c #160A03",
"02 c #361806",
"03 c #3B240B",
"04 c #261618",
"05 c #281406",
"06 c #000000",
"07 c #F79A3A",
"08 c #E8943B",
"09 c #D78636",
"0A c #482A14",
"0B c #E38B35",
"0C c #BA742B",
"0D c #7B4618",
"0E c #C7732B",
"0F c #BA6824",
"0G c #47250A",
"0H c #D89348",
"0I c #8B5326",
"0J c #9B6128",
"0K c #DB812E",
"0L c #A85619",
"0M c #583415",
"0N c #D4782A",
"0O c #763C11",
"0P c #673915",
"0Q c #995118",
"0R c #582D14",
"0S c #220B02",
"0T c #B67337",
"0U c #684217",
"0V c #C88236",
"0W c #C36C25",
"0X c #874614",
"0Y c #E59A48",
"0Z c #FAA644",
"0a c #964B14",
"0b c #B7611E",
"0c c #68330D",
"0d c #B25C1B",
"0e c #A76428",
"0f c #E3862E",
"0g c #A04E15",
"0h c #AB601F",
"0i c #965829",
"0j c #823E12",
"0k c #56290B",
"0l c #C2661E",
"0m c #F59D40",
"0n c #D37E31",
"0o c #78390B",
"0p c #59310E",
"0q c #DF9038",
"0r c #452A24",
"0s c #392424",
"0t c #6A3D24",
"0u c #1A1424",
"0v c #171817",
"0w c #854C26",
"0x c #020623",
"0y c #C97B36",
"0z c #583425",
"0+ c #774426",
"0- c #6E4127",
"10 c #A35B27",
"11 c #0D1936",
"12 c #00043A",
"13 c #261925",
"14 c #67342B",
"15 c #020617",
"16 c #2D3247",
"17 c #FDFDFC",
"18 c #556D54",
"19 c #B36D35",
"1A c #B8B8B9",
"1B c #E6E2D9",
"1C c #232C47",
"1D c #6E7183",
"1E c #A35F30",
"1F c #975B38",
"1G c #DAD9D1",
"1H c #252620",
"1I c #AA6732",
"1J c #7C4A36",
"1K c #814E36",
"1L c #855137",
"1M c #130517",
"1N c #8B511C",
"1O c #351D1C",
"1P c #E7A556",
"1Q c #B97C45",
"1R c #5F6226",
"1S c #683E30",
"1T c #ECB366",
"1U c #D48A44",
"1V c #F2B867",
"1W c #B78B50",
"1X c #F9C879",
"1Y c #FED482",
"1Z c #FBC06B",
"1a c #BA874E",
"1b c #FDA23E",
"1c c #FBCD81",
"1d c #C98645",
"1e c #9A6233",
"1f c #D6A15D",
"1g c #D69E5B",
"1h c #D9A35D",
"1i c #431E08",
"1j c #FFD27E",
"1k c #446B22",
"1l c #274716",
"1m c #161607",
"1n c #BB9A5C",
"1o c #375621",
"1p c #314817",
"1q c #233915",
"1r c #79A63C",
"1s c #9A7C48",
"1t c #08260A",
"1u c #5A852C",
"1v c #142813",
"1w c #618A32",
"1x c #7EB041",
"1y c #1A3713",
"1z c #15270C",
"1+ c #C9AC66",
"1- c #E8BB71",
"20 c #15340B",
"21 c #3B6720",
"22 c #527B29",
"23 c #719B39",
"24 c #AB8C54",
"25 c #292615",
"26 c #497424",
"27 c #34591A",
"28 c #97C44A",
"29 c #88B345",
"2A c #A1814B",
"2B c #689434",
"2C c #05160A",
"2D c #9E804C",
"2E c #B15F20",
"2F c #608A2E",
"2G c #5E8830",
"2H c #1B4211",
"2I c #93BB48",
"2J c #3A0500",
"2K c #642D0B",
"2L c #29250A",
"2M c #353512",
"2N c #F6BF70",
"2O c #2A5517",
"2P c #416A1E",
"2Q c #091816",
"2R c #405D25",
"2S c #5B952F",
"2T c #3A641C",
"2U c #B4B786",
"2V c #869356",
"2W c #B5B173",
"2X c #B3B99D",
"2Y c #FCF6E4",
"2Z c #8A9483",
"2a c #7DA840",
"2b c #E8D9A6",
"2c c #ACB393",
"2d c #175511",
"2e c #4D3712",
"2f c #5D4111",
"2g c #0B3B11",
"2h c #29611B",
"2i c #838B72",
"2j c #093506",
"2k c #0E4609",
"2l c #082414",
"2m c #0E4712",
"2n c #93A579",
"2o c #27560C",
"2p c #82AC43",
"2q c #154608",
"2r c #55975B",
"2s c #97DD84",
"2t c #95E47F",
"2u c #99E384",
"2v c #91DB7E",
"2w c #87C97C",
"2x c #FAF1DA",
"2y c #E4D495",
"2z c #8BD27A",
"2+ c #AAFC95",
"2- c #89D38C",
"30 c #8CD590",
"31 c #B7FFA3",
"32 c #FAE7B6",
"33 c #94A166",
"34 c #B2A468",
"35 c #B6FF9C",
"36 c #7BD17F",
"37 c #2C654D",
"38 c #0B4454",
"39 c #0B3B43",
"3A c #083E51",
"3B c #165357",
"3C c #74BA65",
"3D c #62922F",
"3E c #144B56",
"3F c #CA433B",
"3G c #B8503F",
"3H c #A99A59",
"3I c #D7AB22",
"3J c #A39427",
"3K c #5BC967",
"3L c #9CEC93",
"3M c #8E9F6E",
"3N c #A8FC8C",
"3O c #529B79",
"3P c #D13530",
"3Q c #E66B61",
"3R c #AB911E",
"3S c #53C95D",
"3T c #144846",
"3U c #7BC16C",
"3V c #83954B",
"3W c #559468",
"3X c #113D41",
"3Y c #0B3536",
"3Z c #0F4144",
"3a c #17443B",
"3b c #7E9150",
"3c c #0F4237",
"3d c #39711B",
"3e c #04282B",
"3f c #052B30",
"3g c #214E3F",
"3h c #204E41",
"3i c #011B25",
"3j c #25442D",
"3k c #0A322A",
"3l c #78B373",
"3m c #AAEF94",
"3n c #477957",
"3o c #113A37",
"3p c #132926",
"3q c #2B5947",
"3r c #649B6A",
"3s c #42794B",
"3t c #448162",
"3u c #427E60",
"3v c #88400E",
"0000000000000000000000000000000000000000000000000000000000000000000000000000000000000000000000000000000000000000000000000000000000000000000000000000000000000000000000000000000000000000000000000000000000000000000000000000000000000000000000000000000000000000",
"0000000000000000000000000000000000000000000000000000000000000000000000000000000000000000000000000000000000000000000000000000000000000000000000000000000000000000000000000000000000000000000000000000000000000000000000000000000000000000000000000000000000000000",
"0000000000000000000000000000000000000000000000000000000000000000000000000000000000000000000000000000000000000000000000000000000000000000000000000000000000000000000000000000000000000000000000000000000000000000000000000000000000000000000000000000000000000000",
"0000000000000000000000000000000000000000000000000000000000000000000000000000000000000000000000000000000000000000000000000000000000000000000000000000000000000000000000000000000000000000000000000000000000000000000000000000000000000000000000000000000000000000",
"0000000000000000000000000000000000000000000000000000000000000000000000000000000000000000000000000000000000000000000000000000000000000000000000000000000000000000000000000000000000000000000000000000000000000000000000000000000000000000000000000000000000000000",
"0000000000000000000000000000000000000000000000000000000000000000000000000000000000000000000000000000000000000000000000000000000000000000000000000000000000000000000000000000000000000000000000000000000000000000000000000000000000000000000000000000000000000000",
"0000000000000000000000000000000000000000000000000000000000000000000000000000000000000000000000000000000000000000000000000000000000000000000000000000000000000000000000000000000000000000000000000000000000000000000000000000000000000000000000000000000000000000",
"0000000000000000000000000000000000000000000000000000000000000000000000000000000000000000000000000000000000000000000000000000000000000000000000000000000000000000000000000000000000000000000000000000000000000000000000000000000000000000000000000000000000000000",
"0000000000000000000000000000000000000000000000000000000000000000000000000000000000000000000000000000000000000000000000000000000000000000000000000000000000000000000000000000000000000000000000000000000000000000000000000000000000000000000000000000000000000000",
"0000000000000000000000000000000000000000000000000000000000000000000000000000000000000000000000000000000000000000000000000000000000000000000000000000000000000000000000000000000000000000000000000000000000000000000000000000000000000000000000000000000000000000",
"0000000000000000000000000000000000000000000000000000000000000000000000000000000000000000000000000000000000000000000000000000000000000000000000000000000000000000000000000000000000000000000000000000000000000000000000000000000000000000000000000000000000000000",
"0000000000000000000000000000000000000000000000000000000000000000000000000000000000000000000000000000000000000000000000000000000000000000000000000000000000000000000000000000000000000000000000000000000000000000000000000000000000000000000000000000000000000000",
"0000000000000000000000000000000000000000000000000000000000000000000000000000000000000000000000000000000000000000000000000000000000000000000000000000000000000000000000000000000000000000000000000000000000000000000000000000000000000000000000000000000000000000",
"0000000000000000000000000000000000000000000000000000000000000000000000000000000000000000000000000000000000000000000000000000000000000000000000000000000000000000000000000000000000000000000000000000000000000000000000000000000000000000000000000000000000000000",
"0000000000000000000000000000000000000000000000000000000000000000000000000000000000000000000000000000000000000000000000000000000000000000000000000000000000000000000000000000000000000000000000000000000000000000000000000000000000000000000000000000000000000000",
"0000000000000000000000000000000000000000000000000000000000000000000000000000000000000000000000000000000000000000000000000000000000000000000000000000000000000000000000000000000000000000000000000000000000000000000000000000000000000000000000000000000000000000",
"0000000000000000000000000000000000000000000000000000000000000000000000000000000000000000000000000000000000000000000000000000000000000000000000000000000000000000000000000000000000000000000000000000000000000000000000000000000000000000000000000000000000000000",
"0000000000000000000000000000000000000000000000000000000000000000000000000000000000000000000000000000000000000000000000000000000000000000000000000000000000000000000000000000000000000000000000000000000000000000000000000000000000000000000000000000000000000000",
"0000000000000000000000000000000000000000000000000000000000000000000000000000000000000000000000000000000000000000000000000000000000000000000000000000000000000000000000000000000000000000000000000000000000000000000000000000000000000000000000000000000000000000",
"0000000000000000000000000000000000000000000000000000000000000000000000000000000000000000010203020201000000000000000000000000000000000000000000000000000000000402030305000000000000000000000000000000000000000000000000000000000000000000000000000000000000000000",
"0000000000000000000000000000000000000000000000000000000000000000000000000000000000000006020708080905000000000000000000000000000600000000000000000000000000060A070B070C060000000000000000000000000000000000000000000000000000000000000000000000000000000000000000",
"000000000000000000000000000000000000000000000000000000000000000000000000000000000000000D0E0E09090E0F0G0000000000000000000006050H0I0000060600000000000000060J090E0K0K0E0L0500000000000000000000000000000000000000000000000000000000000000000000000000000000000000",
"0000000000000000000000000000000000000000000000000000000000000000000000000000000000000M0F0N0O0P0Q0N0N0Q0R00000000000000060S0I0T080U060U0V0T050000000000000P0E0B0W0X0O0X0W0X0G000000000000000000000000000000000000000000000000000000000000000000000000000000000000",
"00000000000000000000000000000000000000000000000000000000000000000000000000000000000S0N0N0L0G05020X0W0N0F010000060602050M0Y0Z0Z0a0X090Y0Z090P0G050600000G070N0b0P02020c0L0N0X060000000000000000000000000000000000000000000000000000000000000000000000000000000000",
"0000000000000000000000000000000000000000000000000000000000000000000000000000000000010F0E0d0L0L0c010e0E0b01050M0M0D0f0N0B08090E0W0N0808090L080Z0I0M0G000G090E0D010a0L0L0L0W0D060000000000000000000000000000000000000000000000000000000000000000000000000000000000",
"0000000000000000000000000000000000000000000000000000000000000000000000000000000000010E0E0d0g0a0O05010Q0h010D0Z0Z0Z0Z0Z080W0W0E08090F0W0E0B0B0B080Z0i01050N0P060G0a0a0L0L0W0X060000000000000000000000000000000000000000000000000000000000000000000000000000000000",
"0000000000000000000000000000000000000000000000000000000000000000000000000000000000010F0E0d0j0c0c0k060c0W0V0Z080E0E0E0E0E0E0E0E0E09080E0W0E0E0E0E0E0B080C0b05010c0c0c0X0L0l0O060000000000000000000000000000000000000000000000000000000000000000000000000000000000",
"000000000000000000000000000000000000000000000000000000000000000000000000000000000000050X0b0j0c0k0G030Q0m0808090E0W0W0E0E0E0E0E0W0N080E0W0E0E0E0E0E0908080F0k0G0k0k0c0X0d0G00000000000000000000000000000000000000000000000000000000000000000000000000000000000000",
"000000000000000000000000000000000000000000000000000000000000000000000000000000000000060O0l0a0a0G01080Z0Y0W0W0W0E0E0W0K0B0n0E0E0E0E0W0W0N080E0E0E0E0E0E0E0E0N0a060o0X0a0L0500000000000000000000000000000000000000000000000000000000000000000000000000000000000000",
"00000000000000000000000000000000000000000000000000000000000000000000000000000000000000050k0d020G0V08090E0E0N080N0E0B090E0E0E0E0E0E0E0E0E0E0E0E0E0B0N0E0E0E0E0F0Q010c0a020000000000000000000000000000000000000000000000000000000000000000000000000000000000000000",
"0000000000000000000000000000000000000000000000000000000000000000000000000000000000000000010G0p0I0Z080N0W0E0N0B0N0E0B0E0E0E0E0E0E0E0E0E0E0E0E0E0E0B0N0E0E0E0E0E0E0p0G02060000000000000000000000000000000000000000000000000000000000000000000000000000000000000000",
"000000000000000000000000000000000000000000000000000000000000000000000000000000000000000000060C0Z080E0E0E0E0E0E0E0E0E0E0E0E0E0E0E0E0E0E0E0E0E0E0E0E0E0E0E0E0E0E0E0N0P06000000000000000000000000000000000000000000000000000000000000000000000000000000000000000000",
"00000000000000000000000000000000000000000000000000000000000000000000000000000000000000000A0C0q080E0E0E0E0E0E0E0E0E0E0E0E0E0E0E0E0E0E0E0E0E0E0E0E0E0E0E0E0E0E0E0E0E0F0O060000000000000000000000000000000000000000000000000000000000000000000000000000000000000000",
"00000000000000000000000000000000000000000000000000000000000000000000000000000000000000060G0Z080N0W0E0E0E0E0E0E0E0E0E0E0E0E0E0E0E0E0E0E0E0E0E0E0E0E0E0E0E0E0E0E0E0E0N0L060000000000000000000000000000000000000000000000000000000000000000000000000000000000000000",
"00000000000000000000000000000000000000000000000000000000000000000000000000000000000000010M0Z0N0W0E0N0N0N0N0E0E0E0E0E0E0E0E0E0E0E0E0E0E0E0E0E0E0E0E0E0E0N0N0N0N0E0E0E0h0S0000000000000000000000000000000000000000000000000000000000000000000000000000000000000000",
"000000000000000000000000000000000000000000000000000000000000000000000000000000000000060e080E0E0E0F0r0r0s0t0W0E0E0E0E0E0E0E0E0E0E0E0E0E0E0E0E0E0E0E0E0i0r0r0s0t0N0E0E0W0F0300000000000000000000000000000000000000000000000000000000000000000000000000000000000000",
"000000000000000000000000000000000000000000000000000000000000000000000000000000000000060e0m0F0E0W0r0u0u0v040D0E0E0E0E0E0E0E0E0E0E0E0E0E0E0E0E0E0E0E0W0r0u0u0u0u0t0E0E0E0N0306000000000000000000000000000000000000000000000000000000000000000000000000000000000000",
"000000000000000000000000000000000000000000000000000000000000000000000000000000000000060e0m0F0N0w0x0W0N0N0E0E0E0E0E0E0E0E0E0E0E0E0E0E0E0E0E0E0E0E0E0E0W0E0E0N0w0x0F0E0E0E0G06000000000000000000000000000000000000000000000000000000000000000000000000000000000000",
"0000000000000000000000000000000000000000000000000000000000000000000000000000000000050y090N0E0E0F0F0E0E0E0E0E0E0E0E0E0E0E0E0E0E0E0E0E0E0E0E0E0E0E0E0E0E0E0E0E0W0F0W0E0E0E0W0D060000000000000000000000000000000000000000000000000000000000000000000000000000000000",
"000000000000000000000000000000000000000000000000000000000000000000000000000000000005080K0W0E0E0E0E0E0E0E0E0E0E0E0E0E0E0E0E0E0E0E0E0E0E0E0E0E0E0E0E0E0E0E0E0E0E0E0E0E0E0E0N0X060000000000000000000000000000000000000000000000000000000000000000000000000000000000",
"00000000000000000000000000000000000000000000000000000000000000000000000000000000000508090W0E0E0N0N0N0N0E0E0E0E0E0E0E0E0E0E0E0E0E0E0E0E0E0E0E0E0E0E0E0E0E0N0N0N0N0N0E0E0E0N0X060000000000000000000000000000000000000000000000000000000000000000000000000000000000",
"000000000000000000000000000000000000000000000000000000000000000000000000000000000M090B0N0W0N0i0z0z0z0z0e0N0E0E0E0E0E0E0E0E0E0E0E0E0E0E0E0E0E0E0E0E0E0E0E0+0z0z0z0-0E0E0E0E0F0X0500000000000000000000000000000000000000000000000000000000000000000000000000000000",
"000000000000000000000000000000000000000000000000000000000000000000000000000000060U070N0E0E100s0x11120x130i0E0E0E0E0E0E0E0E0E0E0E0E0E0E0E0E0E0E0E0E0E0F0A0u110x0x0x140W0E0E0F0L0500000000000000000000000000000000000000000000000000000000000000000000000000000000",
"000000000000000000000000000000000000000000000000000000000000000000000000000000060P070E0W0N0s15161718150x0r0N0E0E0E0E0E0E0E19191919190E0E0E0E0E0E0E0N10151A1B0x0x0x150w0N0E0E0W0500000000000000000000000000000000000000000000000000000000000000000000000000000000",
"0000000000000000000000000000000000000000000000000000000000000000000000000000000509080E0E0E0F0R1C171D150x0z0N0E0E0E0E0E0E1E1F1F1F1F1F1F0F0E0E0E0E0E0N10151G1G0x0x0v100F0E0E0E0E0X06000000000000000000000000000000000000000000000000000000000000000000000000000000",
"00000000000000000000000000000000000000000000000000000000000000000000000000000M0F07080E0E0E0N0+0x161H150x0z0N0E0E0E0E1I1F1J1K1K1K1J1K1J1K1F0E0E0E0E0N100x1C1C0x0x0u0E0E0E0E0E0E0F0O050000000000000000000000000000000000000000000000000000000000000000000000000000",
"00000000000000000000000000000000000000000000000000000000000000000000000000060X0Z0E0E0E0E0E0N0+0x0x0x0x150r0N0E0E0E1L1K1K1L1K1L1L1L1L1L1K1L1L0e0N0E0N100x0x150x0x1M0W0E0E0E0E0E0E0E050000000000000000000000000000000000000000000000000000000000000000000000000000",
"000000000000000000000000000000000000000000000000000000000000000000000000001N09080E0E0E0E0E0E0F0t0x0x0x0P0e0E0E0E1I1J1J1J1K1K1L1L1L1L1K1L1L1J1F0F0E0E0F0I130x0x1O100E0E0E0E0E0E0E0F0a0G00000000000000000000000000000000000000000000000000000000000000000000000000",
"000000000000000000000000000000000000000000000000000000000000000000000000050E0B080N0E0E0E0E0E0N0F0M0z0z0F0N0E0E101J1L1K1K1K1K1L1L1L1L1L1L1L1L1K1K0E0E0E0N0+0z140i0N0E0E0E0E0E0E0E0E0d0k06000000000000000000000000000000000000000000000000000000000000000000000000",
"000000000000000000000000000000000000000000000000000000000000000000000000050E0B0E0E0E0E0E0E0E0E0E0N0N0N0E0W0W1P1Q1R130u0s1K1K1L1L1L1L1L1S0u0u0z1F1T090l0E0N0N0N0N0E0E0E0E0E0E0E0E0E0W0P06000000000000000000000000000000000000000000000000000000000000000000000000",
"0000000000000000000000000000000000000000000000000000000000000000000000000108090F0E0E0E0E0E0E0E0E0E0E0E0E0n1U1V1W1S130x0x0s1J1K1K1L1L0t0u15150z1F1X1P090E0E0W0E0E0E0E0E0E0E0E0E0E0E0N0P06000000000000000000000000000000000000000000000000000000000000000000000000",
"0000000000000000000000000000000000000000000000000000000000000000000000000P080B0W0E0E0E0E0E0E0E0E0E0E0E0W0H1Y1Z1a1J0+040x0x141L1K1K1L0u0x150A0+1L1X1X1V0W0E0E0E0E0E0E0E0E0E0E0E0E0E0E0X02000000000000000000000000000000000000000000000000000000000000000000000000",
"00000000000000000000000000000000000000000000000000000000000000000000060U1b0N0E0E0E0E0E0E0E0E0E0E0E0E0W1P1X1X1V1Q0+0I0+0r0x0r0+0+0+0-0x0u0t0i0w1F1X1X1X1T0E0W0E0E0E0E0E0E0E0E0E0E0E0E0F0a050000000000000000000000000000000000000000000000000000000000000000000000",
"00000000000000000000000000000000000000000000000000000000000000000000060U070W0W0E0E0E0E0E0E0E0E0E0E0E0E1V1Y1c1V1d0w0i0i0+130z0t0t0t0t1O140i0i0I1e1X1X1X1X0V0E0E0E0E0E0E0E0E0E0E0E0E0E0F0X010000000000000000000000000000000000000000000000000000000000000000000000",
"00000000000000000000000000000000000000000000000000000000000000000000060P070E0W0E0E0E0E0E0E0E0E0E0E0W0E1X1X1X1Y1f1I0i0I0i0i0+0t0t0t0t0I0i0i0i0i1Q1X1X1X1X090W0E0E0E0E0E0E0E0E0E0E0E0E0b0a010000000000000000000000000000000000000000000000000000000000000000000000",
"00000000000000000000000000000000000000000000000000000000000000000000060p0W0W0E0E0E0E0E0E0E0E0E0E0E0W1P1X1c1X1Y1g1I1I0i0I0i0I0w0P0+0I0i0i0i1I1I0T1X1X1X1X1T090W0E0E0E0E0E0E0E0E0E0E0b0L0X010000000000000000000000000000000000000000000000000000000000000000000000",
"00000000000000000000000000000000000000000000000000000000000000000000060G0L0W0W0E0E0E0E0E0E0E0E0E0E0E1V1c1c1c1Y1g1I0T0J0i0i0i0i0M0P0i0i0i0i1I190T1X1X1X1X1Y0H0W0E0E0E0E0E0E0E0E0E0E0L0L0X010000000000000000000000000000000000000000000000000000000000000000000000",
"00000000000000000000000000000000000000000000000000000000000000000000060k0d0F0E0E0E0E0E0E0E0E0E0E0E0W1T1c1X1X1Y1h1I0T0T1I0i0i0i0G0P0i0i0e19191I0T1X1X1X1X1c1U0W0E0E0E0E0E0E0E0E0E0E0L0L0X010000000000000000000000000000000000000000000000000000000000000000000000",
"00000000000000000000000000000000000000000000000000000000000000000000001i0c0d0W0E0E0E0E0E0E0E0E0E0E091X1c1X1X1Y1h1I0T0T190J0i0i050M0i0i0e0T191I0T1X1X1X1X1c1P0y0E0E0E0E0E0E0E0E0E0W0L0X0G010000000000000000000000000000000000000000000000000000000000000000000000",
"000000000000000000000000000000000000000000000000000000000000000000000000010a0b0E0E0E0E0E0E0E0E0E0E1V1X1X1X1X1X1h190T0T0T0T1I0i010A0i1I0T190T190T1X1X1X1X1X1V0H0E0E0E0E0E0E0E0E0E0F0d0k06000000000000000000000000000000000000000000000000000000000000000000000000",
"000000000000000000000000000000000000000000000000000000000000000000000606050a0b0E0E0E0E0E0E0E0E0E0E1V1X1X1X1X1Y1V0y0T0T0T0T1I0i010A0i19190T0T0y1U1j1X1X1c1X1X0Y0W0E0E0E0E0E0E0E0F0L0d0k01060600000000000000000000000000000000000000000000000000000000000000000000",
"0000000000000000000000000000000000000000000000000000000000000000000v1k1l1m0O0Q0F0E0E0E0E0E0E0E0E0E0Y1X1X1X1X1n1f1U0T0T0T0T0J0i010A0i1I0T0T190V0H1W1T1X1X1c1T1U0W0E0E0E0E0E0E0E0b0L0a0G061o1p00000000000000000000000000000000000000000000000000000000000000000000",
"00000000000000000000000000000000000000000000000000000000000000001q1o1r1k060k0X0d0W0E0E0E0E0E0E0E0E0W1T1X1X1X010M0Y190T19190e0i010A0i1I19191I1U1d061s1Y1X1Y1U0W0E0E0E0E0E0E0E0E0d0Q0c051t1u1u1l1v0000000000000000000000000000000000000000000000000000000000000000",
"00000000000000000000000000000000000000000000000000000000000000061w1x1l1y1z050c0d0L0F0E0E0E0E0E0E0E0W1V1X1X1X1+1R02190T0T0T0i0w06030i1I0T0T0y0U1H1n1-1X1X1X090W0E0E0E0E0E0E0W0d0L0L021m201y211r1y0600000000000000000000000000000000000000000000000000000000000000",
"0000000000000000000000000000000000000000000000000000000000001q22231r1y2020060k0L0L0L0W0E0E0E0E0E0E0W1P1X1X1X1Y24250I0i0i0i0P0P050A0P0+0i0i0i0M1R1j1X1X1X1T0y0E0E0E0E0E0E0E0F0L0L0a011z1y1z261r262700000000000000000000000000000000000000000000000000000000000000",
"0000000000000000000000000000000000000000000000000000000000061q28291r1z1z20011i0a0L0L0L0F0E0E0E0E0E0E0W1V1X1X1X1X1X2506060606060R0206060606062A1j1X1X1X1X0y0W0E0E0E0E0E0E0L0L0d0L0o011z1y1t1k292B262C000000000000000000000000000000000000000000000000000000000000",
"0000000000000000000000000000000000000000000000000000000000001y292B2B2B272C2C1m1i0X0Q0L0d0b0F0E0E0E0E0E091P1X1X1X1X1-1W2D2A2A2A1f1a1s2A2A2A1h1X1X1X1X1X090E0W0E0E0E0W2E0F0d0L0L0c052C2C1t222B2B2F1k2C000000000000000000000000000000000000000000000000000000000000",
"0000000000000000000000000000000000000000000000000000000000001y292G1u292G1q2H1z010c0X0L0L0L0L0F0W0W0E0E0l091V1X1X1X1X1j1Y1Y1Y1Y1j1j1Y1Y1j1Y1X1X1X1X1X1P0W0W0W0W0W0W0b0L0L0L0Q0X05061y1y1p292B1u2F262C000000000000000000000000000000000000000000000000000000000000",
"0000000000000000000000000000000000000000000000000000000000001y292B1u1u232I29262C062J0a0L0b0L0L0L0d0E0E0E0E0W1P1X1X1X1X1X1X1X1X1X1X1X1X1X1X1X1X1X1V090W0E0E0E0W0b0L0L0L0d0Q2K062C1t1r29291w1u1u1w2606000000000000000000000000000000000000000000000000000000000000",
"0000000000000000000000000000000000000000000000000000000000001y1r2B1u1u1w232B1w1w22272L0G0c0L0L0L0L0b0F0W0W0W0E090Y1V1X1X1X1X1X1X1X1X1X1X1X1X1P090E0E0E0E0W0l0d0L0L0L0a2K052M22221w2B2B2B1u2F1w1u272C000000000000000000000000000000000000000000000000000000000000",
"0000000000000000000000000000000000000000000000000000000000001v1u1u1u1u1u1u1u2B29292B1t1m050X0Q0L0L0a0L0W0W0W0W0F0W09091P1X2N2N1X1X2N1X1V0Y090E0l0W0W0E0W0W0L0L0L0L0a0P1m1t2O1x29291u1u1u1u1u1u262715000000000000000000000000000000000000000000000000000000000000",
"000000000000000000000000000000000000000000000000000000000000001v27261k1u2B2F1u1u1u1w2923262C010k0a0L0L0L0L0L0E0E0E0W0W0W0E0E0E0E0E0E0E0E0W0W0W0E0E0F0d0L0L0L0L0a0206202B1r1r1u2F1u1u2F1u2P2P1R1y2Q00000000000000000000000000000000000000000000000000000000000000",
"00000000000000000000000000000000000000000000000000000000000000001z1y1y1l27261u1u1u2F232B1u2R1p2M030c0X0a0g0L0d0b0L0b0W0W0W0W0W0W0W0W0W0W0W0W0F0d0d0L0L0g0a0o0p031p27262B2B2B1u1u1u261k1l1y1y1y1z0000000000000000000000000000000000000000000000000000000000000000",
"00000000000000000000000000000000000000000000000000000000000000002Q2C2C062C2O2P1u1u1u1u1u1w292S212C060G0a0a0a0a0a0a0L0b0b0F0W0W0W0W0W0W0F0b0l0L0a0a0a0a0a0X052C1t1u1r1r1u1u1u1u1u26271y062C2C2C000000000000000000000000000000000000000000000000000000000000000000",
"00000000000000000000000000000000000000000000000000000000000000061w1r1u1k272C2C2C27262F1u1u2F2G1u2627202C030a0a0a0a0a0a0a0L0L0L0L0L0L0L0L0a0a0X0a0a0a0c1t2C1l2P1u1u1u1u1u1w1u261y062C1z2T26222B1y0600000000000000000000000000000000000000000000000000000000000000",
"0000000000000000000000000000000000000000000000000000000000001v1w231r2G1u261l1l1y1l1q271k1u1u26262626272H1z0G0P0X0X0X0X0a0a0a0Q0a0a0a0a0a0a0X0X0X0c0p2L1y1l26262P2P2622221o1l1l1y1y1q27221u2G2B222706000000000000000000000000000000000000000000000000000000000000",
"00000000000000000000000000000000000000000000000000000000001v2R2I2B2G2G1w2G1u262P1z06061l26222U2V2O1u1u262H1t2C0p0X0X0X0X0X0X0X0X0X0X0X0X0X0X0X0O052C1t1k221u26272W2V2T272C06061l26221u1w1w1w1w2B1u1y000000000000000000000000000000000000000000000000000000000000",
"00000000000000000000000000000000000000000000000000000000061w291w1w2G1w1w2G2G1u1u1k27271y2C1t1B2X1t2T1k26262T2O1y1q0c0D0X0X0X0X0X0X0X0X0X0X0P2M1z1l2T2626262P1l1v2Y2Z2C2C1l2727222G1u1w1w1w1w1w1w2G2B1y0600000000000000000000000000000000000000000000000000000000",
"000000000000000000000000000000000000000000000000000000001q2B2a1u2G2G1w1w2G1w1w1w1u26261l1z1t2b2c1t1y1l212T2T2T2d2H2M2e2f2f2f2f2f2f0U0U2f2e2M1y2g2O2O2T2T2h1l201y2Y2i2C1y2T22262G1w1w1w1w1w1w1w1w2G1w271v00000000000000000000000000000000000000000000000000000000",
"0000000000000000000000000000000000000000000000000000001v29292a2G1w1w1w1w1w1w1w1w1w2G2G261k2O1G2X2j1t1t1t2j2k2d2d2d2l2l2j202j2j2j2j2j201t2l2l2g2O2d2m2m2j2C1t1t272Y2n2o261u1w1w1w1w1w1w1w1w1w1w1w1w2G2B262C000000000000000000000000000000000000000000000000000000",
"0000000000000000000000000000000000000000000000000000002C2p231w1w1w2G1w1w1w1w1w1w1w1u1u1u262O2b2U2q202r2s2t2t2u2u2u2s2u2u2u2s2u2s2s2s2u2s2s2v2u2u2u2u2u2v2w2O201o2x2n2o1u2G1w1w1w1w1w1w1w1w1w1w1w1w2G1w1k06000000000000000000000000000000000000000000000000000000",
"00000000000000000000000000000000000000000000000000001q272p2B1u1w1w2G221u1w1w1w1w1w2G2G1w222O2y2W2q262z2+2-2-302-2-30302-2-2-2-2-2-2-2-2-2-2-2-2-2-302-2s312r212732332T1w1w1w1w1w1w1w1w2G221u1w1w1w2G1w261q000000000000000000000000000000000000000000000000000000",
"00000000000000000000000000000000000000000000000000062R282p2B2G1w1w2G2T2P1w2G1w1w1w1w1w1w1u2o2b342q353637383839393A38393938383838383838383838383838383A3B2r313C202b2V2o2B2G1w1w1w1w1w1w1u27261w1w1w1w1w1w3D1v0000000000000000000000000000000000000000000000000000",
"00000000000000000000000000000000000000000000000000061o292B1w1w1w1w2G1u262T1u1w1w1w1w1w2G262b1+1p2O2+2r3E3F3G3H3I3J3A2r3K3E3E3E3E3E3E3E3E3E3E3E3E3E3E3E3B373L3C2j1R2y3M2T1w1w1w1w1w1w26271u1u1w1w1w1w1w1w1u2l0000000000000000000000000000000000000000000000000000",
"00000000000000000000000000000000000000000000000000062R292G1w1w1w1w1w2B1k20221u1w1w1w1w1u26321f2q2O3N3O3E3P3Q343I3R383K3S3E3E3E3E3E3E3E3E3E3E3E3E3E3E3E3E3E3L3C2j1k322U2T1w1w1w1w1w1u271l2G1w1w1w1w1w1w1w1u1v0000000000000000000000000000000000000000000000000000",
"000000000000000000000000000000000000000000000000061w1r1w1w1w1w1w1w1w2B27062T261w1w1w1w1u1u2b2y2O1l2+3O3A3B38383E3E3E3E3E3E3E3E3E3E3E3E3E3E3E3E3E3E3E3E3E3T3L3U2j1w2b2W2T1w1w1w1w1u261y2C2G1w1w1w1w1w1w1w2G231o06000000000000000000000000000000000000000000000000",
"000000000000000000000000000000000000000000000000061w2p2G1w1w1w1w1u221u2O2C271k221u1w2F1w223V2r2O2O2+3W393T393X3939393939393X3939393939393Y3Y3Y39393Y393Z3a3L3C2j213b1w261w1w1w1u261k1y2C22221u1w1w1w1w1w2G1r1o06000000000000000000000000000000000000000000000000",
"000000000000000000000000000000000000000000000000061w2p1u1w1w1w1w1k272P1l2C2T2P2P1u1u2F2F1u2P272O2h2+3W3Y3Y3Y3Y3Y3Y3Y3Y3Y3Y3Y3Y3Y3Y3Y3Y3Y3Y3Y3Y3Y3Y3Y3Y3Y3c3L3C2k2O2O261w1w1w1w262P261y2C211k2T221w1w1w1w2G1r1o06000000000000000000000000000000000000000000000000",
"000000000000000000000000000000000000000000000000061w2p2G1w1w1w1w262T1y2C061t1y1z271k261u2F1w2B3d2O2+3W3Y3Y3Y3Y3e3f3Y3Y3Y3Y3Y3Y3Y3Y3Y3Y3Y3Y3Y3Y3Y3Y3Y3Y3Y3c3L3U2q2S2S2F1u22261k1q1v1v2C2C1v1l1k1u1w1w1w1w2G1r1o06000000000000000000000000000000000000000000000000",
"00000000000000000000000000000000000000000000001v232B2B1w1w1w2G1u1u261v1v1v1v1v1z1l2O2O1k1u22262T2O2+3W3Y3Y3Y3Y3g3h3Y3Y3Y3Y3Y3Y3Y3Y3Y3Y3Y3Y3Y3Y3Y3Y3Y3Y3Y3c3L3C2q2626221u27272O1y1v1y1v1v1v1l1u221u1w1w1w2G2G2B22060000000000000000000000000000000000000000000000",
"00000000000000000000000000000000000000000000001v2p2B2G1w1w1w1u272a2I2929292929291y06061l2T0606062g2+2r3Y3Y3Y3f2u2-3i3Y3Y3Y3Y3Y3Y3Y3Y3Y3Y3Y3Y3Y3Y3Y3Y3Y3Y3T2+3C06060620262C06061w29292p2p2929291k2T1w1w1w1w1u1r1w060000000000000000000000000000000000000000000000",
"00000000000000000000000000000000000000000000001v2p2B1w1w1w1w2G262B2323232B231w261k22221l2L0i0J0J0J183j3k3Y3Y3Y373W3l3h3f3Y3Y3Y3Y3Y3Y3Y3Y3Y3Y3Y3Y3Y3Y3Y3Y3k1R1R0i0i0e0U1z1k221k1k262B2323232B231u221w1w1w1w1u232G060000000000000000000000000000000000000000000000",
"00000000000000000000000000000000000000000000001v1r2B1w1w1w1w1w1w1w2G2G2G1u1u1k272B2a2p1R0k0707070B0202253e3Y3Y3e3g3m3n3o3Y3Y3Y3Y3Y3Y3Y3Y3Y3Y3Y3Y3Y3Y3Y3p030S0P0708070F051R2a2p1k1l261u2G2G2G2G1w1w1w1w1w1w2G2B22060000000000000000000000000000000000000000000000",
"00000000000000000000000000000000000000000000002l261u1w1w1w1w1w1w1w1w1w1w1w2T261r2B22060J070F0F0W0W0B070E1m3Y3Y3o3Y3i2z2s3f3Y3Y3Y3Y3Y3Y3Y3Y3Y3Y3Y3Y3Y3e0A1b070f0W0W0F0E08021z2B2B2G27261w1w1w1w1w1w1w1w1w1w2G2227060000000000000000000000000000000000000000000000",
"00000000000000000000000000000000000000000000002Q1k1u1w1w1w1w1w1w1w1w1w1w1u272T1u211p1N0F0N0W0W0W0W0P0P0G2C3Y3Y3f3h3l2r373Y3Y3Y3Y3Y3Y3Y3Y3Y3Y3Y3Y3Y3Y3e050U0M0X0W0W0W0E0N0a2e1l26261l1k1w2G1w1w1w1w1w1w1w2G1w262O2C0000000000000000000000000000000000000000000000",
"00000000000000000000000000000000000000000000002C2T221w1w1w1w1w1w1w1w1w2G1u272T261y1m0f0E0F0W0W0W0F050101053k3Y3o372+3q3i3Y3Y3Y3Y3Y3Y3Y3Y3Y3Y3Y3Y3Y3Y3p0501060p0E0W0W0W0F0N0X061k262O1k1u2G1w1w1w1w1w1w1w1u1u1k1q060000000000000000000000000000000000000000000000",
"0000000000000000000000000000000000000000000000002C271u1w1w1w1w1w1w1w1w26271u1u2B1q020W0W0W0W0W0W0W0F0W0W0Q013e2s2s3f3Y3Y3Y3e3e3e3e3e3Y3Y3Y3Y3Y3Y3Y2Q0G0N0W0F0W0W0W0W0W0W0E0X06222B1w1k271w1w1w1w1w1w1w1w2G261y06000000000000000000000000000000000000000000000000",
"0000000000000000000000000000000000000000000000002C2726221w1w1w1w1w1w1w26271u1u2B1p020W0W0W0W0W0W0W0W0W0W0L023e2r3n3f3Y3Y3f3n3r3W3W3r3T3Y3Y3Y3Y3Y3Y2Q0G0N0W0W0W0W0W0W0W0W0E0X061k1u1u1k272G1w1w1w1w1w1w1u261k1y06000000000000000000000000000000000000000000000000",
"000000000000000000000000000000000000000000000000062726262G1w1w1w1w1w1w26271u1u3D1q020W0W0W0W0W0W0W0W0W0W0a0k3e3f3f3Y3Y3Y3e2w352+2+353q3f3Y3Y3Y3Y3Y2Q020W0W0W0W0W0W0W0W0W0E0a062T1u1u2T272G1w1w1w1w2G1w222T2P1y06000000000000000000000000000000000000000000000000",
"000000000000000000000000000000000000000000000000001m1l261k1u1w1w1w1w1w26272T2T2T1z020W0F0W0W0W0W0F0b0X0c050v3Y3Y3Y3Y3Y3Y3Y3a3a3a3a3a3Y3Y3Y3Y3Y3Y3Y3k2l020X0W0E0W0W0W0W0W0E0Q061l2T2727271u1w1w1w1w1w262P2P1y2C00000000000000000000000000000000000000000000000000",
"00000000000000000000000000000000000000000000000000001v2721261u221u2F1w261l1k2P261H020L0F0W0W0W0W0F0c1i0G012Q3Y3Y3Y3Y3Y3Y3Y3Y3Y3Y3Y3Y3Y3Y3Y3Y3Y3Y3Y3e250k020P0a0W0W0W0W0W0W0X06272626272O1u1w1w1u22221k2T1l2Q0000000000000000000000000000000000000000000000000000",
"0000000000000000000000000000000000000000000000000000002Q2P1k2T2T1u2F2B1k201u2F2B1q020g0b0W0W0W0W0F0X0a0a051v3Y3Y3Y3Y3Y3Y3Y3Y3Y3Y3o3Y3Y3Y3Y3Y3Y3Y3Y2l020b0Q0X0a0W0W0W0W0W0d0O01222B2B211l1u1u2G1k272T1k1l06000000000000000000000000000000000000000000000000000000",
"000000000000000000000000000000000000000000000000000000002l27261k261k26272H1k1k261l1m0a0L0L0W0W0W0W0N0l0a012l393Y3Y3Y3Y3Y3Y3Y3Y3Y3Y3Y3Y3Y3Y3Y3Y3Y392l060k0d0N0N0W0W0W0b0L0L0P2C1k1k1k271l261k1k1k2P2P1l2C00000000000000000000000000000000000000000000000000000000",
"00000000000000000000000000000000000000000000000000000000061q2O1l2T2T2P271l272T2P2O1z0k0X0L0d0b0b0d0Q0X0k1v3s3t3t3t3t3t3t3t3t3u3t3t3t3t3t3t3t3t3t3u3s3d1m0O0X0Q0d0b0b0L0a0o031t2T2T2T1l1l2T2T2P271l1l1v0000000000000000000000000000000000000000000000000000000000",
"0000000000000000000000000000000000000000000000000000000000150606272P2P2P2T2H2O1k212706023v0g0g0a0a010106183535353535313535353535353535353535353535312u2C1m061i0L0a0a0a0o011z2T1k2T2H272P2P2P2P1v0606000000000000000000000000000000000000000000000000000000000000",
"00000000000000000000000000000000000000000000000000000000000000002l1v1t2l1v27272O2T2T271z1m02020202002Q3i3p3j3j3j3j3j3j3j3j3j3j3j3j3j3j3j3j3j3j3j3j3j1H2Q2Q0000020202052C1l272T272O2T1l2C1t1t2l000000000000000000000000000000000000000000000000000000000000000000",
"000000000000000000000000000000000000000000000000000000000000000000000000151y1y1v1y1l1l1v060606060000002Q150606060606060606060606060606060606060606060615150000060606062Q1y1y1q1y1v1l1z00000000000000000000000000000000000000000000000000000000000000000000000000",
"0000000000000000000000000000000000000000000000000000000000000000000000000015150606150600000000000000000000000000000000000000000000000000000000000000000000000000000000000606060606060000000000000000000000000000000000000000000000000000000000000000000000000000",
"0000000000000000000000000000000000000000000000000000000000000000000000000000000000000000000000000000000000000000000000000000000000000000000000000000000000000000000000000000000000000000000000000000000000000000000000000000000000000000000000000000000000000000",
"0000000000000000000000000000000000000000000000000000000000000000000000000000000000000000000000000000000000000000000000000000000000000000000000000000000000000000000000000000000000000000000000000000000000000000000000000000000000000000000000000000000000000000",
"0000000000000000000000000000000000000000000000000000000000000000000000000000000000000000000000000000000000000000000000000000000000000000000000000000000000000000000000000000000000000000000000000000000000000000000000000000000000000000000000000000000000000000",
"0000000000000000000000000000000000000000000000000000000000000000000000000000000000000000000000000000000000000000000000000000000000000000000000000000000000000000000000000000000000000000000000000000000000000000000000000000000000000000000000000000000000000000",
"0000000000000000000000000000000000000000000000000000000000000000000000000000000000000000000000000000000000000000000000000000000000000000000000000000000000000000000000000000000000000000000000000000000000000000000000000000000000000000000000000000000000000000",
"0000000000000000000000000000000000000000000000000000000000000000000000000000000000000000000000000000000000000000000000000000000000000000000000000000000000000000000000000000000000000000000000000000000000000000000000000000000000000000000000000000000000000000",
"0000000000000000000000000000000000000000000000000000000000000000000000000000000000000000000000000000000000000000000000000000000000000000000000000000000000000000000000000000000000000000000000000000000000000000000000000000000000000000000000000000000000000000",
"0000000000000000000000000000000000000000000000000000000000000000000000000000000000000000000000000000000000000000000000000000000000000000000000000000000000000000000000000000000000000000000000000000000000000000000000000000000000000000000000000000000000000000",
"0000000000000000000000000000000000000000000000000000000000000000000000000000000000000000000000000000000000000000000000000000000000000000000000000000000000000000000000000000000000000000000000000000000000000000000000000000000000000000000000000000000000000000",
"0000000000000000000000000000000000000000000000000000000000000000000000000000000000000000000000000000000000000000000000000000000000000000000000000000000000000000000000000000000000000000000000000000000000000000000000000000000000000000000000000000000000000000",
"0000000000000000000000000000000000000000000000000000000000000000000000000000000000000000000000000000000000000000000000000000000000000000000000000000000000000000000000000000000000000000000000000000000000000000000000000000000000000000000000000000000000000000",
"0000000000000000000000000000000000000000000000000000000000000000000000000000000000000000000000000000000000000000000000000000000000000000000000000000000000000000000000000000000000000000000000000000000000000000000000000000000000000000000000000000000000000000",
"0000000000000000000000000000000000000000000000000000000000000000000000000000000000000000000000000000000000000000000000000000000000000000000000000000000000000000000000000000000000000000000000000000000000000000000000000000000000000000000000000000000000000000",
"0000000000000000000000000000000000000000000000000000000000000000000000000000000000000000000000000000000000000000000000000000000000000000000000000000000000000000000000000000000000000000000000000000000000000000000000000000000000000000000000000000000000000000",
"0000000000000000000000000000000000000000000000000000000000000000000000000000000000000000000000000000000000000000000000000000000000000000000000000000000000000000000000000000000000000000000000000000000000000000000000000000000000000000000000000000000000000000",
"0000000000000000000000000000000000000000000000000000000000000000000000000000000000000000000000000000000000000000000000000000000000000000000000000000000000000000000000000000000000000000000000000000000000000000000000000000000000000000000000000000000000000000",
"0000000000000000000000000000000000000000000000000000000000000000000000000000000000000000000000000000000000000000000000000000000000000000000000000000000000000000000000000000000000000000000000000000000000000000000000000000000000000000000000000000000000000000",
"0000000000000000000000000000000000000000000000000000000000000000000000000000000000000000000000000000000000000000000000000000000000000000000000000000000000000000000000000000000000000000000000000000000000000000000000000000000000000000000000000000000000000000",
"0000000000000000000000000000000000000000000000000000000000000000000000000000000000000000000000000000000000000000000000000000000000000000000000000000000000000000000000000000000000000000000000000000000000000000000000000000000000000000000000000000000000000000",
"0000000000000000000000000000000000000000000000000000000000000000000000000000000000000000000000000000000000000000000000000000000000000000000000000000000000000000000000000000000000000000000000000000000000000000000000000000000000000000000000000000000000000000"
};
